X: 1
T:The Black Joke
M:6/8
C:
S:Gereg Blaiddlwyd
N:
A:Adderbury
O:English
R:Jig
%P:A/2(AB)$^5$
P:A.(AB)5
K:G
I:speed 600
P:A
%
|: G | D2G  GFG      |\
       A>cB AGF      | G>AB d>cB | A>cB AGF  | G3   E3   | DEF  G2   :|\
P:B
   c |\
       B2d  d2d      | e>de d2c  | B2d  d2d  | e>de d2c  | B2B  B>AG |\
       A>cB AGF      | G>AB d>cB | A>cB AGF  | G3   E3   | DEF  G2   ||
